X:5
T:Freylach No. 8
R:frailach
Z:id:hn-frailach-5
M:4/4
L:1/8
Q:1/4=140
K:Gphr =B
BA G2 BA G2 | BA GA GF F2 | =EF GA Bc BA | G2 B2 d2 g2 |
BA G2 BA G2 | BA GA GF F2 | =EF GA Bc BA | G8 :|
|: G2 e2 dcBc | d3c BAGF | G2 e2 dcBc | d8 |
cBcB cBAG | FFGA GF F2 | fedc BAGF | G8 :|



